X: 41805
T: Victoria Valse
R: waltz
M: 3/4
K: Dmajor
|:u(AG)|([A,2F2] [D2F2]) [D2F2]|([A,2F2] [D2F2]) [D2F2]|([A,2F2] [D2F2]) [D2F2]|A^G BA =GF|
([A,2E2] [C2E2]) [C2E2]|([A,2E2] [C2E2]) [C2E2]|([A,2E2] [C2E2]) [C2E2]|GE BA GE|
([A,2F2] [D2F2]) [D2F2]|([A,2F2] [D2F2]) [D2F2]|([A,2F2] [D2F2]) [D2F2]|A^G BA =GF|
([A,2E2] [C2E2]) [C2E2]|([A,2E2] [C2E2]) [C2E2]|A^G BA =GE|D4:|
(3ABc|(dF Ad Fd)|(cE Ac Ec)|(BD GB DB)|(AD FA DA)|
(dF Ad Fd)|(cE Ac Ec)|B3 (A GE)|D4||
(3ABc|([Dd][Fd] [Dd][.[Fd] [Dd][Fd])|([Ec][Ac] [Ec].[Ac] [Ec][Ac])|([DB][GB] [DB].[GB] [DB][GB])|([DA][FA] [DA].[FA] [DA][FA])|
([Dd][Fd] [Dd].[Fd] [Dd][Fd])|([Ec][Ac] [Ec].[Ac] [Ec][Ac])|B3 (A GE)|D4||
A2|f4 (3efe|d4 DF|(A2 G2) F2|([A,2E2] [C2E2]) [C2E2]|
g4 (3fgf|e4 d2|Bc AB GA|([A,2F2] [D2F2]) [D2F2]|
f4 (3efe|d4 DF|(A2 G2) F2|([A,2E2] [C2E2]) [C2E2]|
ga fg ef|de cd Bc|A2 (G2 E2)|D4||
K: GMaj
|:(dc)|B2 "pizz.".[G,2D2] .[G,2D2]|B2 "pizz.".[G,2D2] .[G,2D2]|B2 "pizz.".[G,2D2] .[G,2D2]|vd^c ed =cB|
c2 "pizz.".[G,2E2] .[G,2E2]|c2 "pizz.".[G,2E2] .[G,2E2]|c2 "pizz.".[G,2E2] .[G,2E2]|vcB dc B^A|
B2 "pizz.".[G,2D2] .[G,2D2]|B2 "pizz.".[G,2D2] .[G,2D2]|B2 "pizz.".[G,2D2] .[G,2D2]|vd^c ed =cB|
c2 "pizz.".[G,2E2] .[G,2E2]|c2 "pizz.".[G,2E2] .[G,2E2]|cB dc BA|G4:|
(Bc)|(d4 c2)|(e4 d2)|b6|(b4 c'2)|
(b4 a2)|(e4 f2)|gf ga bg|d4 (Bc)|
(d4 c2)|(e4 d2)|b6|(b4 c'2)|
(b4 a2)|(e4 f2)|g2 ({a/}g)>f g>a|"D.C. Fine."g2 z2||

